X: 33557
T: Rakes Of Clonmel, The
R: jig
M: 6/8
K: Aminor
A/B/|:"Am"cBA "G"GED|"Am"EAA A2B|"C"ccc edc|"G"BGG G2e/f/|
"G"ggg "C"efg|"G"dBG Bcd|"Am"ecA "G"GED|1 "Am"EAA A2A/B/:|2 "Am"EAA A2a||
"Am"aea aed|"Am"cAA A2e/f/|"G"ggg gdc|"G"BGG G2f|
"C"gea gfe|"G"dBG Bcd|"Am"ecA "G"GED|"Am"EAA A2a|
"Am"aea aed|"Am"cAA A2e/f/|"G"ggg gdc|"G"BGG G2B|
"C"cBc d^cd|"C"edc Bcd|"Am"ecA "G"GED|"Am"EAA A2B|"Am"Aaa aaa|
"Em"bge e2f|"G"ggg "Em"bge|"G"dBG G2B|"C"cBc "G"ddd|
"C"efe "G"Bcd|"Am"ecA "G"GED|"Am"EAA A2A/B/|
"Am"cBA "G"GED|"Am"EAA A2B|"C"ccc edc|"G"BGG G2e/f/|
"G"ggg "C"efg|"G"dBG Bcd|"Am"ecA "G"GED|"Am"EAA A3||

